X: 18184
T: Humours Of Garrykennedy, The
R: hornpipe
M: 4/4
K: Gmajor
|:(3CDE|F>Ac>=B d>cB>c|A>F (3FEF C>FA>c|B>AB>d g>fe>d|d>c=B>d c>_BA>B|
c>f (3fef a>fc>A|(3BAB d>B c>AF>A|G>CE>G c>=Bd>c|B3/2[C/G/]D>E F2:|
|:A>B|c>f (3fef c>fa>f|c>AF>A C>FA>c|B>dG>F E>Gc>=B|d>c=B>d c>_BA>B|
c>f (3fef c>AF>A|G>^FG>A B>dg>f|e>dc>=B _B>CD>E|(3FEF A>G F2:|

